X:1
T:Flee as a Bird
T:Flee as a Bird
T:Mary Stanley Bunce Dana Shindler
T:Mary Stanley Bunce Dana Shindler, 1842
T:Public Domain Courtesy of the Cyber Hymnal™
T:Public Domain Courtesy of the Cyber Hymnal™
C:Mary Stanley Bunce Dana Shindler
Z:Public Domain
Z:Courtesy of the Cyber Hymnal™
%%score ( 1 2 ) ( 3 4 )
L:1/8
Q:1/4=105
M:4/4
K:G
V:1 treble 
V:2 treble 
V:3 bass 
V:4 bass 
V:1
 E2 [EB]>[EB] [EB]2 [Ec]>[EB] | (B3 A/G/) [=DF]4 | E2 [EG]>[EG] [EA]2 [E^A]>[EA] | (B4 F4) | %4
w: 1.~Flee as a bird to your|mount- * * ain,|thou who art wear- y of|sin; *|
w: 2.~He will pro- tect thee for-|ev- * * er,|Wwipe ev- ery fa- ll- ing|tear; *|
 E2 [EB]>[EB] [EB]2 [Ec]>[EB] | (B3 A/G/) [=DF]4 | E2 [EG]>[EG] [^DF]2 [DB]>[DB] | E6 [DF]2 | %8
w: Go to the clear flow- ing|fount- * * ain|Where you may wash and be|clean. Haste,|
w: He will for- sake thee, O|ne- * * ver,|Sshel- tered so ten- der- ly|there. Haste,|
 ([DG]2 [DB]>)[DA] G2 [Ge]>[Gd] | (d3 c/B/) [FA]4 | [GB]2 [GA]>[GB] (dc)[EB][EA] | [EG]4 [^DF]4 | %12
w: then, * th’A- ven- ger is|near * * thee;|Call, and the Sav- * ior will|hear thee;|
w: then, * the ho- urs are|fly- * * ing,|SSpend not the mo- * ments in|sigh- ing,|
 E2 [EB]>[EB] [EB]2 [Ec]>[EB] | (B3 A/G/) [=DF]3 [DF] | E2 [EG]>[EG] [^DF]2 [DB]>[DB] | E4 [Ec]4 | %16
w: He on His bo- som will|bear * * thee; O|thou who art wear- y of|sin, O|
w: Cease from your sor- row and|cry- * * ing: The|Sav- ior will wipe ev- ery|tear, The|
 [EB]2 [EG][B,E] B,2 [^DG]>[DF] | E8 |] %18
w: thou who art wear- y of|sin.|
w: Sav- ior will wipe ev- ery|tear.|
V:2
 E2 x6 | ^D4 x4 | E2 x6 | ^D6 x2 | E2 x6 | ^D4 x4 | E2 x6 | E6 x2 | x8 | F4 x4 | x4 A2 x2 | x8 | %12
 E2 x6 | ^D4 x4 | x8 | E4 x4 | x8 | E8 |] %18
V:3
 [E,G,]2 [E,G,]>[E,G,] [E,G,]2 [E,A,]>[E,G,] | [B,,F,]4 [B,,A,]4 | %2
 [E,G,]2 [E,B,]>[E,B,] [C,C]2 [C,G,]>[C,E,] | (F,4 A,4) | %4
 [E,G,]2 [E,G,]>[E,G,] [E,G,]2 [E,A,]>[E,G,] | [B,,F,]4 [B,,A,]4 | %6
 [E,G,]2 [E,B,]>[E,B,] [B,,B,]2 [B,,F,]>[B,,A,] | [E,G,]6 [D,C]2 | %8
 ([G,B,]2 [G,C]>)[G,B,] [G,B,]2 [G,B,]>[G,B,] | [D,A,]4 [D,D]4 | %10
 [G,D]2 [G,C]>[G,D] [C,E]2 [A,,D][A,,C] | [B,,B,]4 [B,,A,]4 | %12
 [E,G,]2 [E,G,]>[E,G,] [E,G,]2 [E,A,]>[E,G,] | [B,,F,]4 [B,,A,]3 [B,,A,] | %14
 [E,G,]2 [E,B,]>[E,B,] [B,,B,]2 [B,,F,]>[B,,A,] | [E,G,]4 [A,,A,]4 | %16
 [B,,G,]2 [B,,B,][B,,G,] [^D,F,]2 [B,,A,]>[B,,A,] | [E,G,]8 |] %18
V:4
 x8 | x8 | x8 | B,,6 x2 | x8 | x8 | x8 | x8 | x8 | x8 | x8 | x8 | x8 | x8 | x8 | x8 | x8 | x8 |] %18

